images/flaticons/bookmark.svg

<svg height="512" viewBox="0 0 24 24" width="512" xmlns="http://www.w3.org/2000/svg"><path d="m17.5 0h-11a5.507 5.507 0 0 0 -5.5 5.5v14.972a3.5 3.5 0 0 0 6.044 2.4l4.912-5.2 5.013 5.25a3.5 3.5 0 0 0 6.031-2.412v-15.01a5.507 5.507 0 0 0 -5.5-5.5zm2.5 20.51a.5.5 0 0 1 -.861.345l-6.1-6.391a1.5 1.5 0 0 0 -1.089-.464 1.5 1.5 0 0 0 -1.086.47l-6 6.345a.479.479 0 0 1 -.549.122.471.471 0 0 1 -.315-.465v-14.972a2.5 2.5 0 0 1 2.5-2.5h11a2.5 2.5 0 0 1 2.5 2.5z"/></svg>

<?xml version="1.0" encoding="UTF-8"?>
<svg xmlns="http://www.w3.org/2000/svg" id="Bold" viewBox="0 0 24 24" width="512" height="512"><path d="M17.5,0H6.5A5.507,5.507,0,0,0,1,5.5V20.472a3.5,3.5,0,0,0,6.044,2.4l4.912-5.2,5.013,5.25A3.5,3.5,0,0,0,23,20.51V5.5A5.507,5.507,0,0,0,17.5,0ZM20,20.51a.5.5,0,0,1-.861.345l-6.1-6.391A1.5,1.5,0,0,0,11.95,14h0a1.5,1.5,0,0,0-1.086.47l-6,6.345a.479.479,0,0,1-.549.122A.471.471,0,0,1,4,20.472V5.5A2.5,2.5,0,0,1,6.5,3h11A2.5,2.5,0,0,1,20,5.5Z"/></svg>
